X:1
T:Title
%%score ( 1 2 ) 3
L:1/8
Q:1/4=60
M:4/4
K:C
V:1 treble nm="Strings 1, Treble"
V:2 treble 
V:3 bass nm="Strings 1, Bass"
V:1
 z4 z2 z [CE] | [CE]3 [CE] [CE][EG][DF][CE] | [A,C]2 [B,D]2 [CE]3 [CE] | %3
w: 1.~Be|hold~ the~ wom en~ walk ing~|to~ the~ tomb,~ Bear|
 [B,D]3 [B,E] [A,D][A,C][A,C]A, | [DF]2 [CE]2 [B,D]3 [CE] | [CE]3 [CE] [CE][EG][DF][CE] | %6
w: ing~ for~ Je sus'~ bod y~|sweet~ per fume;~ They~|won der~ who~ will~ roll~ a|
 [A,C]2 [B,D]2 [CE]3 [CE] | [B,D]3 [CE] [DF][DF][CE][B,D] | [A,C]2 [B,D]2 [G,C]3[Q:1/4=75] G | %9
w: way~ the~ stone�~ And~|still~ to~ us~ the~ fu ture~|is~ un known.~ *|
 cC/D/- D/E/F/G/ AB/d/- dB | G6 z G | %11
w: ||
 [FA][F^G]/[FA]/- [FA]/F/[F=G]/[FA]/ [GB][GA]/[GB]/- [GB][Gc] | [Gd]6 z [Bd] | %13
w: ||
 [Af]2 [Ge]2 [Gd]3 [Af] | [ce][Ac]/[Bd]/- [Bd][ce] [Bd]3 [Bd] | [Af]2 [Ge]2 [Gd]3 [Af] | %16
w: |||
 [ce][Ac]/[Bd]/- [Bd][ce] [Bd]3 G | [Ec][Ec]/[Ec]/- [Ec][EG] [Gd][Gd]/[Gd]/- [Gd]G | %18
w: ||
 [Ge][Ge]/[Ge]/- [Ge][Ac] [Af][Ge]/[Gd]/- [Gd][Gc] | [Af]2 [Ge]2 d3 c | c4- [Fc-]4 | [Ec]6 z2 |] %22
w: ||||
V:2
 x8 | x8 | x8 | x8 | x8 | x8 | x8 | x8 | x8 | x8 | x8 | x8 | x8 | x8 | x8 | x8 | x8 | x8 | x8 | %19
 z4 F2 G2 | G4 z4 | x8 |] %22
V:3
 z4 z2 z [C,G,] | [C,G,]3 [E,G,] [E,A,][G,B,][G,B,][G,C] | [F,A,]2 [D,G,]2 [C,G,]3 [C,G,] | %3
 [E,^G,]3 [E,G,] [E,A,][E,A,][A,,A,][A,,A,] | [G,,G,]2 [G,,G,]2 [G,,G,]3 [C,G,] | %5
 [C,G,]3 [E,G,] [E,A,][G,B,][G,B,][G,C] | [F,A,]2 [D,G,]2 [C,G,]3 [C,G,] | %7
 [B,,G,]3 [A,,A,] [G,,B,][G,,B,][A,,A,][B,,G,] | [C,F,]2 [G,,F,]2 [C,E,]3 G, | %9
 CC,/D,/- D,/E,/F,/G,/ A,B,/D/- DB, | G,6 z G, | %11
 [F,A,][F,B,]/[F,C]/- [F,C]/[F,A,]/[F,B,]/[F,C]/ [G,D][G,D]/[G,D]/- [G,D][G,D] | [G,D]6 z [G,D] | %13
 [F,C]2 [E,C]2 [G,D]3 [F,C] | [E,C][F,C]/[G,D]/- [G,D][G,C] [G,D]3 [G,D] | %15
 [F,C]2 [E,C]2 [G,D]3 [F,C] | [E,C][F,C]/[G,D]/- [G,D][G,C] [G,D]3 [D,B,] | %17
 [C,C][C,C]/[C,C]/- [C,C][E,C][K:treble] [G,D][G,D]/[G,D]/- [G,D][B,D] | %18
 [CE][CE]/[CE]/- [CE][K:bass][A,C] [F,C][G,C]/[G,D]/- [G,D][K:treble][CE] | %19
 [CF]2 [CE]2 [CD]3 [G,C] | %20
 C[K:bass][C,C]/[D,C]/- [D,C]/[E,C]/[F,C]/[K:treble][G,C]/ [A,C][B,C]/C/- CD | C6 z2 |] %22

